polymer/images/features3.svg

<svg width="99" height="99" viewBox="0 0 99 99" fill="none" xmlns="http://www.w3.org/2000/svg">
<path d="M83.7098 76.4545C83.0548 79.0418 80.6521 81.161 77.4334 81.9885C74.765 82.6775 71.0261 82.4528 68.5186 79.7644C68.324 79.5548 68.1106 79.3226 67.8823 79.068C65.2139 76.1362 60.2475 70.6846 54.177 71.4971C49.8543 72.0775 45.9246 75.7768 42.4889 82.494C40.4903 86.403 34.9027 88.8405 29.4984 88.1666C24.2213 87.5076 20.4937 84.0441 19.2624 78.6599C17.9562 72.9312 20.6284 69.2281 22.9862 65.9594C24.9698 63.2148 27.0207 60.3729 25.3965 57.1192C23.8807 54.0751 20.5685 52.4912 17.3649 50.9598C12.9374 48.8406 10.2427 47.3654 10.6619 43.9282C10.8415 42.4567 11.4853 39.8956 13.7907 39.2441C14.1687 39.1392 14.5654 39.0868 14.9846 39.0868C17.8477 39.0868 21.579 41.5356 24.865 45.6692C28.6301 50.4057 33.2634 50.2297 36.1864 47.9532C37.6198 46.8374 38.6527 45.205 39.0232 43.4789C39.4387 41.5431 39.012 39.6222 37.8294 38.0646C37.4925 37.6191 37.107 37.1885 36.6953 36.7317C34.8427 34.6537 33.6863 33.126 34.4648 30.8982C34.955 29.4941 35.7709 28.5542 36.8937 28.1012C38.3533 27.5096 40.3444 27.7754 42.4963 28.8538C45.5016 30.359 48.1701 30.4937 50.4194 29.2619C53.4809 27.5845 55.3671 23.5594 56.0333 17.2915C56.329 14.4946 58.1217 12.7834 60.8276 12.7198C63.7618 12.6449 67.1975 14.6818 67.8038 18.5945C68.1369 20.725 66.2805 23.0352 64.3156 25.484C61.9129 28.4756 59.192 31.8679 59.847 35.9604C60.0903 37.4993 61.0296 38.8622 62.4818 39.802C64.1809 40.899 66.3479 41.2398 68.2753 40.7118C70.7117 40.0491 72.2125 38.5776 73.4176 37.3945C73.9716 36.8515 74.4993 36.3386 74.9184 36.1251C76.801 35.1816 79.7276 35.7432 81.4455 38.6338C82.7891 40.8991 82.834 44.2876 78.9267 47.0097C75.8017 49.1888 73.9566 52.1767 73.732 55.423C73.5486 58.044 74.342 62.099 79.1475 66.5472C82.8976 70.0144 84.4695 73.4404 83.7098 76.4545Z" fill="url(#paint0_linear)" stroke="url(#paint1_linear)" stroke-width="3" stroke-miterlimit="10" stroke-linecap="round" stroke-linejoin="round"/>
<path d="M16.0889 16.8459C15.6061 17.5648 14.8613 17.9467 13.8022 18.0029C10.8642 18.1676 6.63511 15.7825 3.74208 12.334C1.61255 9.79918 0.965092 6.8824 2.00927 4.53849C2.78399 2.79367 4.36707 1.70783 6.23836 1.64043C6.31696 1.63669 6.39556 1.63672 6.47416 1.63672C10.707 1.63672 13.4765 5.77035 14.4833 7.57133C16.1974 10.6379 17.2491 15.0973 16.0889 16.8459Z" fill="url(#paint2_linear)" stroke="url(#paint3_linear)" stroke-width="3" stroke-miterlimit="10" stroke-linecap="round" stroke-linejoin="round"/>
<path d="M39.4276 11.4725C38.8624 11.9143 37.6648 11.8019 36.2276 11.1692C34.4798 10.4016 33.4057 9.10611 33.3645 7.70576C33.3309 6.60121 33.9709 5.62766 35.1199 5.02857C35.6513 4.7515 36.1341 4.7515 36.673 5.02109C38.3721 5.86729 39.7269 8.78784 39.8654 9.60034C40.0076 10.4316 39.8393 11.1505 39.4276 11.4725Z" fill="url(#paint4_linear)" stroke="url(#paint5_linear)" stroke-width="3" stroke-miterlimit="10" stroke-linecap="round" stroke-linejoin="round"/>
<path d="M82.7892 22.2298C82.2727 22.3196 82.123 22.1399 82.0332 22.0313C81.4381 21.3161 81.3109 19.2007 82.1267 17.0327C82.8416 15.1419 84.0242 13.8913 85.2892 13.6929C87.8828 13.2847 88.0438 14.2395 88.1037 14.5989C88.5191 17.0926 85.2406 21.7992 82.7892 22.2298Z" fill="url(#paint6_linear)" stroke="url(#paint7_linear)" stroke-width="3" stroke-miterlimit="10" stroke-linecap="round" stroke-linejoin="round"/>
<path d="M96.9997 95.0303C96.4271 96.2547 95.0835 98.1568 92.4711 97.1196C90.0085 96.1423 88.7772 93.5663 89.3199 91.9189C89.6754 90.8443 90.3716 90.2302 91.4457 90.0504C91.659 90.0167 91.8798 89.998 92.1044 89.998C93.7249 89.998 95.5962 90.8929 96.5992 92.2146C97.3066 93.1395 97.4376 94.0868 96.9997 95.0303Z" fill="url(#paint8_linear)" stroke="url(#paint9_linear)" stroke-width="3" stroke-miterlimit="10" stroke-linecap="round" stroke-linejoin="round"/>
<defs>
<linearGradient id="paint0_linear" x1="47.2576" y1="12.7178" x2="47.2576" y2="88.2782" gradientUnits="userSpaceOnUse">
<stop/>
<stop offset="1" stop-color="#0047FF"/>
</linearGradient>
<linearGradient id="paint1_linear" x1="47.2576" y1="12.7178" x2="47.2576" y2="88.2782" gradientUnits="userSpaceOnUse">
<stop/>
<stop offset="1" stop-color="#0047FF"/>
</linearGradient>
<linearGradient id="paint2_linear" x1="9.04877" y1="1.63672" x2="9.04877" y2="18.0109" gradientUnits="userSpaceOnUse">
<stop/>
<stop offset="1" stop-color="#0047FF"/>
</linearGradient>
<linearGradient id="paint3_linear" x1="9.04877" y1="1.63672" x2="9.04877" y2="18.0109" gradientUnits="userSpaceOnUse">
<stop/>
<stop offset="1" stop-color="#0047FF"/>
</linearGradient>
<linearGradient id="paint4_linear" x1="36.6392" y1="4.81982" x2="36.6392" y2="11.7388" gradientUnits="userSpaceOnUse">
<stop/>
<stop offset="1" stop-color="#0047FF"/>
</linearGradient>
<linearGradient id="paint5_linear" x1="36.6392" y1="4.81982" x2="36.6392" y2="11.7388" gradientUnits="userSpaceOnUse">
<stop/>
<stop offset="1" stop-color="#0047FF"/>
</linearGradient>
<linearGradient id="paint6_linear" x1="84.8452" y1="13.5933" x2="84.8452" y2="22.2541" gradientUnits="userSpaceOnUse">
<stop/>
<stop offset="1" stop-color="#0047FF"/>
</linearGradient>
<linearGradient id="paint7_linear" x1="84.8452" y1="13.5933" x2="84.8452" y2="22.2541" gradientUnits="userSpaceOnUse">
<stop/>
<stop offset="1" stop-color="#0047FF"/>
</linearGradient>
<linearGradient id="paint8_linear" x1="93.2227" y1="89.998" x2="93.2227" y2="97.4181" gradientUnits="userSpaceOnUse">
<stop/>
<stop offset="1" stop-color="#0047FF"/>
</linearGradient>
<linearGradient id="paint9_linear" x1="93.2227" y1="89.998" x2="93.2227" y2="97.4181" gradientUnits="userSpaceOnUse">
<stop/>
<stop offset="1" stop-color="#0047FF"/>
</linearGradient>
</defs>
</svg>

<svg width="99" height="99" viewBox="0 0 99 99" fill="none" xmlns="http://www.w3.org/2000/svg"><path d="M83.71 76.454c-.655 2.588-3.058 4.707-6.277 5.535-2.668.688-6.407.464-8.914-2.225-.195-.21-.408-.441-.637-.696-2.668-2.932-7.635-8.383-13.705-7.57-4.323.58-8.252 4.279-11.688 10.996-1.999 3.909-7.586 6.347-12.99 5.673-5.278-.66-9.005-4.123-10.237-9.507-1.306-5.729 1.366-9.432 3.724-12.7 1.984-2.745 4.035-5.587 2.41-8.84-1.515-3.045-4.828-4.629-8.031-6.16-4.428-2.12-7.122-3.595-6.703-7.032.18-1.471.823-4.032 3.129-4.684a4.438 4.438 0 0 1 1.194-.157c2.863 0 6.594 2.449 9.88 6.582 3.765 4.737 8.398 4.56 11.321 2.284 1.434-1.116 2.467-2.748 2.837-4.474.416-1.936-.011-3.857-1.194-5.414a20.561 20.561 0 0 0-1.134-1.333c-1.852-2.078-3.009-3.606-2.23-5.834.49-1.404 1.306-2.344 2.429-2.797 1.46-.591 3.45-.326 5.602.753 3.006 1.505 5.674 1.64 7.923.408 3.062-1.678 4.948-5.703 5.614-11.97.296-2.797 2.089-4.509 4.795-4.572 2.934-.075 6.37 1.962 6.976 5.874.333 2.131-1.523 4.441-3.488 6.89-2.403 2.992-5.124 6.384-4.469 10.476.243 1.54 1.183 2.902 2.635 3.842 1.699 1.097 3.866 1.438 5.793.91 2.437-.663 3.938-2.134 5.143-3.318.554-.542 1.081-1.055 1.5-1.269 1.883-.943 4.81-.382 6.527 2.509 1.344 2.265 1.389 5.654-2.518 8.376-3.125 2.179-4.97 5.167-5.195 8.413-.183 2.621.61 6.676 5.415 11.124 3.75 3.467 5.322 6.893 4.563 9.907z" fill="url(#a)" stroke="url(#b)" stroke-width="3" stroke-miterlimit="10" stroke-linecap="round" stroke-linejoin="round"/><path d="M16.089 16.846c-.483.719-1.228 1.1-2.287 1.157-2.938.165-7.167-2.22-10.06-5.669C1.612 9.799.965 6.882 2.01 4.538c.775-1.744 2.358-2.83 4.23-2.898.078-.003.157-.003.235-.003 4.233 0 7.002 4.133 8.01 5.934 1.713 3.067 2.765 7.526 1.605 9.275z" fill="url(#c)" stroke="url(#d)" stroke-width="3" stroke-miterlimit="10" stroke-linecap="round" stroke-linejoin="round"/><path d="M39.428 11.473c-.566.441-1.763.329-3.2-.304-1.748-.767-2.822-2.063-2.864-3.463-.033-1.105.607-2.078 1.756-2.677.531-.277 1.014-.277 1.553-.008 1.7.846 3.054 3.767 3.192 4.58.143.83-.026 1.55-.437 1.871z" fill="url(#e)" stroke="url(#f)" stroke-width="3" stroke-miterlimit="10" stroke-linecap="round" stroke-linejoin="round"/><path d="M82.79 22.23c-.517.09-.667-.09-.757-.199-.595-.715-.722-2.83.094-4.998.715-1.891 1.897-3.142 3.162-3.34 2.594-.408 2.755.546 2.815.906.415 2.494-2.863 7.2-5.315 7.63z" fill="url(#g)" stroke="url(#h)" stroke-width="3" stroke-miterlimit="10" stroke-linecap="round" stroke-linejoin="round"/><path d="M97 95.03c-.573 1.225-1.916 3.127-4.529 2.09-2.463-.978-3.694-3.554-3.151-5.201.355-1.075 1.052-1.689 2.126-1.869.213-.033.434-.052.658-.052 1.62 0 3.492.895 4.495 2.217.708.924.839 1.872.4 2.815z" fill="url(#i)" stroke="url(#j)" stroke-width="3" stroke-miterlimit="10" stroke-linecap="round" stroke-linejoin="round"/><defs><linearGradient id="a" x1="47.258" y1="12.718" x2="47.258" y2="88.278" gradientUnits="userSpaceOnUse"><stop/><stop offset="1" stop-color="#0047FF"/></linearGradient><linearGradient id="b" x1="47.258" y1="12.718" x2="47.258" y2="88.278" gradientUnits="userSpaceOnUse"><stop/><stop offset="1" stop-color="#0047FF"/></linearGradient><linearGradient id="c" x1="9.049" y1="1.637" x2="9.049" y2="18.011" gradientUnits="userSpaceOnUse"><stop/><stop offset="1" stop-color="#0047FF"/></linearGradient><linearGradient id="d" x1="9.049" y1="1.637" x2="9.049" y2="18.011" gradientUnits="userSpaceOnUse"><stop/><stop offset="1" stop-color="#0047FF"/></linearGradient><linearGradient id="e" x1="36.639" y1="4.82" x2="36.639" y2="11.739" gradientUnits="userSpaceOnUse"><stop/><stop offset="1" stop-color="#0047FF"/></linearGradient><linearGradient id="f" x1="36.639" y1="4.82" x2="36.639" y2="11.739" gradientUnits="userSpaceOnUse"><stop/><stop offset="1" stop-color="#0047FF"/></linearGradient><linearGradient id="g" x1="84.845" y1="13.593" x2="84.845" y2="22.254" gradientUnits="userSpaceOnUse"><stop/><stop offset="1" stop-color="#0047FF"/></linearGradient><linearGradient id="h" x1="84.845" y1="13.593" x2="84.845" y2="22.254" gradientUnits="userSpaceOnUse"><stop/><stop offset="1" stop-color="#0047FF"/></linearGradient><linearGradient id="i" x1="93.223" y1="89.998" x2="93.223" y2="97.418" gradientUnits="userSpaceOnUse"><stop/><stop offset="1" stop-color="#0047FF"/></linearGradient><linearGradient id="j" x1="93.223" y1="89.998" x2="93.223" y2="97.418" gradientUnits="userSpaceOnUse"><stop/><stop offset="1" stop-color="#0047FF"/></linearGradient></defs></svg>
